X: 21
T: Dude Cowboy
L:1/8
M:2/4
S:Viola "Mom" Ruth - Pioneer Western Folk Tunes (1948)
Z:AK/Fiddler's Companion
K:G
Bdd>e | BGG>A | Bdd>e | B3 (G/A/) | Bdd>e | BGG>A | BGAF | GDEG ||
|: [G4B4] | A [B,2G2] A | {^AB}d2 {^AB}d2 | [G4B4] | A [B,2G2] A |
{^AB}d2 {^AB}d2 | G2 A2 |1 [B,4G4] | [B,GD]EG :|2 [B,4G4] | [B,2G2] ||

%%sep 1 1 500
